!!!COM: Bach, Johann Sebastian
!!!OTL: Ach Gott, wie manches Herzeleid
!!!ONM: No. 217
!!!OCL: Erk
!!!YOE: Riemenschneider, Albert
!!!OPR: 371 Harmonized Chorales and 69 Chorale Melodies with Figured Bass
!!!OPT: Bach Chorale Harmonizations
**kern	**kern	**kern	**kern
! bass	! tenor	! alto	! soprano
*M3/4	*M3/4	*M3/4	*M3/4
*C:	*C:	*C:	*C:
=1	=1	=1	=1
4C	4G	4e	4cc
4E	4c	4g	4cc
4C	4e	4g	4cc
=2	=2	=2	=2
2F	4c	4f	4a
.	4d	4g	4b
4E	4e	4g	4cc
=3	=3	=3	=3
2F#	2d	2a	4dd
.	.	.	4cc
4G	4d	4g	4b
=4	=4	=4	=4
2.D;	2.d;	2.f#;	2.a;
=5	=5	=5	=5
4D	4d	4f#	4a
4G	4d	4g	4b
4E	4e	4g	4cc
=6	=6	=6	=6
2BB	2d	2g	2dd
4C	4e	4g	4cc
=7	=7	=7	=7
4G	4d	4g	4b
2D	4.d	4g	2a
.	.	4f#	.
.	8c	.	.
=8	=8	=8	=8
2.GG;	2.B;	2.g;	2.g;
=9	=9	=9	=9
4c	4c	4g	4ee
4G#	4B	4e	4ee
4E	4e	4g#	4ee
=10	=10	=10	=10
2A	4e	4a	4cc
.	4f	4b	4dd
4AA	4g	4cc#	4ee
=11	=11	=11	=11
4D	4f	4dd	4ff
4E	4g	2cc	2ee
4F	4c	.	.
=12	=12	=12	=12
2.G;	2.B;	2.g;	2.dd;
=13	=13	=13	=13
4E	4c	4g	4cc
4D	4F	4b	4dd
4C	4G	4cc	4ee
=14	=14	=14	=14
4F	4A	4cc	2dd
4G	4B	4b	.
4A	4c	4e	4cc
=15	=15	=15	=15
4F#	4d	4a	4cc
4G	2d	2g	2b
4GG	.	.	.
=16	=16	=16	=16
2.C;	2.e;	2.g;	2.cc;
==	==	==	==
*-	*-	*-	*-
!!!CDT: 1685/3//-1750/7/28
!!!OCY: Deutschland
!!!AGN: chorale
!!!AST: Baroque
!!!AIN: vox
!!!YOY: 1941
!!!PPP: New York; London
!!!PPR: G. Schirmer
!!!ENC: David Huron
!!!EED: David Huron
!!!YEN: United States of America
!!!YER: 1992
!!!YEC: Copyright 1992 David Huron
!!!YEM: Rights to all derivative electronic formats reserved.
!!!YER: March 20, 1996
!!!AMT: simple quadruple
!!!EEV: 1.1
